brandFactory_export/3.Masa/Data network_3Masa.svg

<?xml version="1.0" encoding="UTF-8"?>
<svg width="24px" height="24px" viewBox="0 0 24 24" version="1.1" xmlns="http://www.w3.org/2000/svg" xmlns:xlink="http://www.w3.org/1999/xlink">
    <title>3.Masa/Data network_3Masa</title>
    <g id="Symbols" stroke="none" stroke-width="1" fill="none" fill-rule="evenodd">
        <g id="3.Masa/Data-network_3Masa" fill="#5CB615" fill-rule="nonzero">
            <path d="M22.0840336,14.7563025 C22.4302521,13.6134454 22.605042,12.3092437 22.605042,10.8302521 C22.605042,9.61680672 22.4941176,8.51428571 22.2588235,7.51932773 L18.4739496,7.51932773 C18.6588235,8.55462185 18.7596639,9.65714286 18.7596639,10.810084 C18.7596639,12.2117647 18.605042,13.5361345 18.3428571,14.7596639 L22.0840336,14.7596639 L22.0840336,14.7563025 Z M15.4722689,20.3932773 C18.5411765,19.8151261 20.6352941,18.2655462 21.7176471,15.7512605 L18.0840336,15.7512605 C17.512605,17.7378151 16.6016807,19.3579832 15.4722689,20.3932773 Z M13.0319328,20.6117647 C14.7361345,20.292437 16.194958,18.4134454 17.0218487,15.7512605 L13.0319328,15.7512605 L13.0319328,20.6117647 Z M17.1932773,6.52436975 C16.4168067,3.52941176 14.8672269,1.38487395 13.0184874,1.04537815 L13.0285714,6.52436975 L17.1932773,6.52436975 Z M17.7344538,10.8067227 C17.7344538,9.65378151 17.6235294,8.54117647 17.4184874,7.51596639 L13.0285714,7.51596639 L13.0285714,14.7563025 L17.2941176,14.7563025 C17.5731092,13.5394958 17.7344538,12.2084034 17.7344538,10.8067227 Z M21.9596639,6.52436975 C20.9579832,3.64033613 18.7865546,1.89243697 15.4789916,1.26386555 C16.7226891,2.40672269 17.7042017,4.25546218 18.2554622,6.52436975 L21.9596639,6.52436975 Z M7.55294118,6.52436975 L12.0134454,6.52436975 L12.0033613,1.04537815 C10.1042017,1.38151261 8.41008403,3.5697479 7.55294118,6.52436975 Z M6.47058824,6.52436975 C7.06218487,4.28907563 8.09411765,2.44705882 9.39831933,1.29411765 C6.17478992,1.9394958 4.0605042,3.6907563 3.07226891,6.52436975 L6.47058824,6.52436975 Z M5.92941176,10.4806723 C5.94957983,9.44537815 6.05042017,8.45378151 6.23529412,7.51932773 L2.78655462,7.51932773 C2.56134454,8.44369748 2.45042017,9.47563025 2.44033613,10.6117647 C3.13613445,10.4907563 3.9092437,10.4235294 4.72605042,10.4235294 C5.14285714,10.4201681 5.5394958,10.4403361 5.92941176,10.4806723 L5.92941176,10.4806723 Z M23.1327731,6.88067227 C23.4487395,8.05378151 23.6235294,9.36470588 23.6235294,10.8268908 C23.6235294,17.9058824 19.7882353,21.6537815 12.5109244,21.6537815 C11.4386555,21.6537815 10.4302521,21.5663866 9.49915966,21.405042 C9.4789916,21.394958 9.46890756,21.3848739 9.4487395,21.3848739 L9.4487395,22.1008403 C9.4487395,22.5680672 8.94789916,22.9546218 7.95966387,23.2336134 C7.09243697,23.4823529 5.9394958,23.6235294 4.72605042,23.6235294 C3.52268908,23.6235294 2.3697479,23.4823529 1.49243697,23.2336134 C0.504201681,22.9546218 0.00336134454,22.5680672 0.00336134454,22.1008403 L0.00336134454,19.7344538 C0.339495798,19.9630252 0.789915966,20.1714286 1.33109244,20.3226891 C2.2487395,20.5915966 3.46218487,20.7294118 4.7394958,20.7294118 C6.02352941,20.7294118 7.2302521,20.5882353 8.15798319,20.3226891 C8.6789916,20.1815126 9.11596639,19.9731092 9.45210084,19.7277311 L9.45210084,20.4436975 C9.52268908,20.4235294 9.60672269,20.4134454 9.68739496,20.4235294 C10.4,20.5546218 11.1865546,20.6151261 12.0134454,20.6420168 L12.0134454,15.7512605 L9.46218487,15.7512605 C9.34117647,15.7512605 9.22689076,15.7008403 9.14621849,15.6336134 C8.8907563,15.8420168 8.51428571,16.0504202 7.97310924,16.2084034 C7.10588235,16.4470588 5.95294118,16.5882353 4.7394958,16.5882353 C3.52605042,16.5882353 2.38319328,16.4470588 1.51596639,16.2084034 C0.739495798,15.9798319 0.178151261,15.6436975 0.00672268908,15.3042017 L0.00672268908,12.6386555 C0.322689076,12.887395 0.76302521,13.0857143 1.33445378,13.2436975 C2.25210084,13.512605 3.46554622,13.6537815 4.74285714,13.6537815 C6.01680672,13.6537815 7.23361345,13.5159664 8.16134454,13.2436975 C8.71260504,13.0857143 9.1394958,12.897479 9.45546218,12.6588235 L9.45546218,14.7563025 L12.0168067,14.7563025 L12.0168067,7.51932773 L7.30084034,7.51932773 C7.08571429,8.49411765 6.96470588,9.52605042 6.95462185,10.6016807 C7.31428571,10.6621849 7.65714286,10.7193277 7.96638655,10.810084 C8.82352941,11.0588235 9.31428571,11.3781513 9.42521008,11.7647059 L9.41512605,11.7747899 C9.27058824,12.1310924 8.78319328,12.4403361 7.97647059,12.6689076 C7.09915966,12.9176471 5.95630252,13.0554622 4.74285714,13.0554622 C3.52941176,13.0554622 2.38655462,12.9176471 1.51932773,12.6689076 C0.692436975,12.4302521 0.191596639,12.1142857 0.0605042017,11.7445378 L0.0504201681,11.7344538 C0.181512605,11.3848739 0.65210084,11.0689076 1.41848739,10.8403361 L1.41848739,10.8302521 C1.41848739,9.36806723 1.59327731,8.05714286 1.91932773,6.88403361 C1.92941176,6.86386555 1.92941176,6.83361345 1.9394958,6.81344538 C3.20336134,2.34957983 6.79663866,0.00336134454 12.5210084,0.00336134454 C18.2655462,0.00336134454 21.8588235,2.34957983 23.1226891,6.81344538 C23.1260504,6.8302521 23.1260504,6.8605042 23.1327731,6.88067227 Z M1.50588235,19.7478992 C0.732773109,19.5226891 0.174789916,19.1932773 0.00336134454,18.8504202 L0.00336134454,16.1815126 C0.339495798,16.4168067 0.783193277,16.6184874 1.32436975,16.7697479 C2.25210084,17.0319328 3.46218487,17.1798319 4.7394958,17.1798319 C6.02016807,17.1798319 7.23361345,17.0352941 8.15462185,16.7697479 C8.67563025,16.6252101 9.11932773,16.4201681 9.45546218,16.1747899 L9.45546218,18.8436975 C9.29747899,19.1260504 8.82689076,19.4991597 7.97310924,19.7478992 C7.1092437,19.9932773 5.95966387,20.1310924 4.74285714,20.1310924 C3.51596639,20.1344538 2.37647059,19.9966387 1.50588235,19.7478992 Z" id="Data-network_3Masa"></path>
        </g>
    </g>
</svg>

<svg width="24" height="24" viewBox="0 0 24 24" xmlns="http://www.w3.org/2000/svg"><path d="M22.084 14.756c.346-1.143.521-2.447.521-3.926 0-1.213-.11-2.316-.346-3.31h-3.785a18.74 18.74 0 01.286 3.29c0 1.402-.155 2.726-.417 3.95h3.741v-.004zm-6.612 5.637c3.07-.578 5.163-2.127 6.246-4.642h-3.634c-.571 1.987-1.482 3.607-2.612 4.642zm-2.44.219c1.704-.32 3.163-2.199 3.99-4.86h-3.99v4.86zm4.161-14.088c-.776-2.995-2.326-5.14-4.175-5.479l.01 5.48h4.165zm.541 4.283c0-1.153-.11-2.266-.316-3.291h-4.39v7.24h4.266c.28-1.217.44-2.548.44-3.95zm4.226-4.283c-1.002-2.884-3.173-4.632-6.481-5.26 1.244 1.143 2.225 2.991 2.776 5.26h3.705zm-14.407 0h4.46l-.01-5.479c-1.899.337-3.593 2.525-4.45 5.48zm-1.082 0c.591-2.235 1.623-4.077 2.927-5.23-3.223.645-5.337 2.397-6.326 5.23h3.399zm-.542 3.957c.02-1.036.121-2.027.306-2.962H2.787c-.226.925-.337 1.957-.347 3.093a13.439 13.439 0 012.286-.188c.417-.004.813.016 1.203.057zm17.204-3.6c.316 1.173.49 2.484.49 3.946 0 7.079-3.835 10.827-11.112 10.827a17.67 17.67 0 01-3.012-.249c-.02-.01-.03-.02-.05-.02v.716c0 .467-.501.854-1.49 1.133-.867.248-2.02.39-3.233.39-1.203 0-2.356-.142-3.234-.39-.988-.28-1.489-.666-1.489-1.133v-2.367c.336.229.787.437 1.328.589.918.269 2.131.406 3.408.406 1.285 0 2.491-.14 3.419-.406a3.95 3.95 0 001.294-.595v.716c.07-.02.155-.03.235-.02.713.13 1.5.191 2.326.218v-4.89h-2.55a.506.506 0 01-.317-.118c-.255.208-.632.416-1.173.574-.867.24-2.02.38-3.234.38-1.213 0-2.356-.14-3.223-.38-.777-.228-1.338-.564-1.51-.904V12.64c.317.248.757.447 1.328.605.918.269 2.132.41 3.409.41 1.274 0 2.49-.138 3.418-.41.552-.158.978-.347 1.294-.585v2.097h2.562V7.52H7.3a14.95 14.95 0 00-.346 3.083c.36.06.702.117 1.011.208.858.249 1.348.568 1.46.955l-.01.01c-.145.356-.633.665-1.44.894-.877.249-2.02.386-3.233.386-1.214 0-2.356-.137-3.224-.386-.827-.239-1.327-.555-1.458-.924l-.01-.01c.13-.35.601-.666 1.367-.895v-.01c0-1.462.175-2.773.501-3.946.01-.02.01-.05.02-.07C3.203 2.35 6.797.003 12.521.003c5.745 0 9.338 2.346 10.602 6.81.003.016.003.047.01.067zM1.506 19.748c-.773-.225-1.331-.555-1.503-.898v-2.668c.336.235.78.436 1.321.588.928.262 2.138.41 3.415.41 1.281 0 2.495-.145 3.416-.41.52-.145.964-.35 1.3-.595v2.669c-.158.282-.628.655-1.482.904-.864.245-2.013.383-3.23.383-1.227.003-2.367-.134-3.237-.383z" fill="#5CB615" fill-rule="nonzero"/></svg>
